X: 1
T: Mor a' Cheannaich
R: strathspey
Z: 1997 by John Chambers <jc:trillian.mit.edu>
M: C
L: 1/8
K: GMix
|: "G"D2 E<G "Em"B2 A<B | "C"A>E G>E "(D7)"C>D E<C \
|  "G"D2 E<G "Em"B2 A<B | "C"A>E G>E "D"D2 D2 :|
|: "Dm"F>D D<D "(G7)"D>E F>G | "C"E>F E>D C>D E<C \
|  "Dm"F>D D<D "Bb"D>D F>G | "Am"A<A G>E "Dm"D2 D2 :|
